icons/mimetypes/64/application-x-desktop.svg

<svg width="64" xmlns="http://www.w3.org/2000/svg" viewBox="0 0 64 64" height="64" xmlns:xlink="http://www.w3.org/1999/xlink">
 <defs>
  <linearGradient id="a" y1="17" x1="40" y2="31" x2="54" gradientUnits="userSpaceOnUse">
   <stop stop-color="#383e51"/>
   <stop offset="1" stop-color="#655c6f" stop-opacity="0"/>
  </linearGradient>
  <linearGradient id="b" y1="392.36" y2="336.36" gradientUnits="userSpaceOnUse" x2="0" gradientTransform="translate(-48-332.36)">
   <stop stop-color="#ffffff" stop-opacity="0"/>
   <stop offset="1" stop-color="#ffffff" stop-opacity=".2"/>
  </linearGradient>
  <path id="c" d="m10 61v-58h30l14 14v44h-14z"/>
 </defs>
 <use fill="#555555" xlink:href="#c"/>
 <g transform="scale(1-1)">
  <rect width="30" x="10" y="-4" fill="#ffffff" height="1" fill-opacity=".412"/>
  <rect width="44" x="10" y="-61" fill="#2e3132" height="1" fill-opacity=".294"/>
 </g>
 <g fill-rule="evenodd">
  <path opacity=".5" fill="#ffffff" d="m54 17l-14-14v14z"/>
  <path opacity=".2" fill="url(#a)" d="m40 17l14 14v-14z"/>
 </g>
 <path fill="#343434" d="m22 23v22h22v-22zm1 1h20v16h-20zm2 2v6h6v-5h-3l-1-1zm1 2h4v3h-4zm-3 13h20v3h-20z"/>
 <path fill="#e0e0e0" d="m21 22v22h22v-22zm1 1h20v16h-20zm2 2v6h6v-5h-3l-1-1zm1 2h4v3h-4zm-3 13h20v3h-20zm1 1v1h1v-1zm13 0v1h1v-1zm2 0v1h1v-1zm2 0v1h1v-1z"/>
 <use fill="url(#b)" xlink:href="#c"/>
</svg>

<?xml version="1.0" encoding="UTF-8" standalone="no"?>
<svg
   xmlns:dc="http://purl.org/dc/elements/1.1/"
   xmlns:cc="http://creativecommons.org/ns#"
   xmlns:rdf="http://www.w3.org/1999/02/22-rdf-syntax-ns#"
   xmlns:svg="http://www.w3.org/2000/svg"
   xmlns="http://www.w3.org/2000/svg"
   xmlns:xlink="http://www.w3.org/1999/xlink"
   xmlns:sodipodi="http://sodipodi.sourceforge.net/DTD/sodipodi-0.dtd"
   xmlns:inkscape="http://www.inkscape.org/namespaces/inkscape"
   width="64"
   version="1.1"
   viewBox="0 0 64 64"
   height="64"
   id="svg51"
   inkscape:version="0.91 r13725"
   sodipodi:docname="application-x-desktop.svg">
  <sodipodi:namedview
     pagecolor="#ffffff"
     bordercolor="#666666"
     borderopacity="1"
     objecttolerance="10"
     gridtolerance="10"
     guidetolerance="10"
     inkscape:pageopacity="0"
     inkscape:pageshadow="2"
     inkscape:window-width="1360"
     inkscape:window-height="708"
     id="namedview73"
     showgrid="true"
     inkscape:zoom="5.2149125"
     inkscape:cx="-24.437419"
     inkscape:cy="26.514072"
     inkscape:window-x="0"
     inkscape:window-y="0"
     inkscape:window-maximized="1"
     inkscape:current-layer="svg51">
    <inkscape:grid
       type="xygrid"
       id="grid4211" />
  </sodipodi:namedview>
  <defs
     id="defs4">
    <linearGradient
       inkscape:collect="always"
       xlink:href="#linearGradient4410"
       id="linearGradient4427-5"
       y1="17"
       x1="40"
       y2="31"
       x2="54"
       gradientUnits="userSpaceOnUse" />
    <linearGradient
       inkscape:collect="always"
       id="linearGradient4410">
      <stop
         style="stop-color:#383e51;stop-opacity:1"
         offset="0"
         id="stop4412" />
      <stop
         style="stop-color:#655c6f;stop-opacity:0"
         offset="1"
         id="stop4414" />
    </linearGradient>
    <linearGradient
       inkscape:collect="always"
       xlink:href="#linearGradient6251"
       id="linearGradient5315"
       gradientUnits="userSpaceOnUse"
       gradientTransform="translate(-47.999995,-332.3622)"
       x1="58"
       y1="392.36221"
       x2="58"
       y2="336.36221" />
    <linearGradient
       id="linearGradient6251"
       inkscape:collect="always">
      <stop
         id="stop6253"
         offset="0"
         style="stop-color:#ffffff;stop-opacity:0" />
      <stop
         id="stop6255"
         offset="1"
         style="stop-color:#ffffff;stop-opacity:0.2" />
    </linearGradient>
  </defs>
  <metadata
     id="metadata84">
    <rdf:RDF>
      <cc:Work
         rdf:about="">
        <dc:format>image/svg+xml</dc:format>
        <dc:type
           rdf:resource="http://purl.org/dc/dcmitype/StillImage" />
      </cc:Work>
    </rdf:RDF>
  </metadata>
  <path
     inkscape:connector-curvature="0"
     style="fill:#555555;fill-opacity:1"
     id="rect3500-9"
     d="m 10,61 0,-58 30,0 14,14 0,30 0,14 -14,0 -30,0 z" />
  <rect
     width="30"
     x="10"
     y="-4"
     height="1"
     style="fill:#ffffff;fill-opacity:0.41176471"
     id="rect4169-2"
     transform="scale(1,-1)" />
  <rect
     width="44"
     x="10"
     y="-61"
     height="1"
     style="fill:#2e3132;fill-opacity:0.29411765"
     id="rect4236-8"
     transform="scale(1,-1)" />
  <path
     inkscape:connector-curvature="0"
     style="fill:#ffffff;fill-opacity:1;fill-rule:evenodd;opacity:0.5"
     id="path4314-9"
     d="M 54,17 40,3 40,17 Z" />
  <path
     inkscape:connector-curvature="0"
     style="opacity:0.2;fill:url(#linearGradient4427-5);fill-rule:evenodd"
     id="path4320-7"
     d="M 40,17 54,31 54,17 Z" />
  <path
     style="fill:#343434;fill-opacity:1"
     d="M 22 23 L 22 45 L 44 45 L 44 23 L 22 23 z M 23 24 L 43 24 L 43 40 L 23 40 L 23 24 z M 25 26 L 25 32 L 31 32 L 31 27 L 28 27 L 27 26 L 25 26 z M 26 28 L 30 28 L 30 31 L 26 31 L 26 28 z M 23 41 L 43 41 L 43 44 L 23 44 L 23 41 z "
     id="rect4167-3" />
  <path
     style="fill:#e0e0e0;fill-opacity:1"
     id="rect4167"
     d="m 21,22 0,22 22,0 0,-22 -22,0 z m 1,1 20,0 0,16 -20,0 0,-16 z m 2,2 0,6 6,0 0,-5 -3,0 -1,-1 -2,0 z m 1,2 4,0 0,3 -4,0 0,-3 z m -3,13 20,0 0,3 -20,0 0,-3 z m 1,1 0,1 1,0 0,-1 -1,0 z m 13,0 0,1 1,0 0,-1 -1,0 z m 2,0 0,1 1,0 0,-1 -1,0 z m 2,0 0,1 1,0 0,-1 -1,0 z"
     inkscape:connector-curvature="0" />
  <path
     d="m 10,61 0,-57.99999 30,0 14,14 L 54,47 54,61 40,61 10,61 Z"
     id="path5311"
     style="fill:url(#linearGradient5315);fill-opacity:1"
     inkscape:connector-curvature="0"
     inkscape:export-xdpi="96"
     inkscape:export-ydpi="96" />
</svg>
